app/dist/common/images/computer-programs-and-systems.svg

<svg fill="none" height="18" viewBox="0 0 18 18" width="18" xmlns="http://www.w3.org/2000/svg"><path d="m0 0h18v18h-18z" fill="#21265d"/><path d="m11.2832 7.09448c-.5795-.57546-1.2209-.95196-1.88304-.95196-1.82099 0-2.91706 1.36889-2.91706 2.85748 0 1.4878 1.0969 2.8567 2.91706 2.8567.76544 0 1.46884-.3171 1.92434-.8925l1.6548 1.7065c-1.0134.9718-2.7104 1.3293-3.57914 1.3293-2.99972 0-5.40016-2.0038-5.40016-5s2.40044-5 5.40016-5c1.26224 0 2.64844.43675 3.59984 1.44816z" fill="#fff"/></svg>

<!-- by TradingView --><svg width="18" height="18" viewBox="0 0 18 18" fill="none" xmlns="http://www.w3.org/2000/svg">
<rect width="18" height="18" fill="#21265D"/>
<path d="M11.2832 7.09448C10.7037 6.51902 10.0623 6.14252 9.40016 6.14252C7.57917 6.14252 6.4831 7.51141 6.4831 9C6.4831 10.4878 7.58 11.8567 9.40016 11.8567C10.1656 11.8567 10.869 11.5396 11.3245 10.9642L12.9793 12.6707C11.9659 13.6425 10.2689 14 9.40016 14C6.40044 14 4 11.9962 4 9C4 6.0038 6.40044 4 9.40016 4C10.6624 4 12.0486 4.43675 13 5.44816L11.2832 7.09448Z" fill="white"/>
</svg>
